X: 5613
T: Butter And Peas
R: reel
M: 4/4
K: Gmajor
AG|EAAA ABAG|(3FED FA dcBA|GGBG EcAG|FDEF GGDG|
GGBG EcAG|(3FED FA dcBA|GGBG EcAG|FDEF GGDG||
(3BdB dB cd (3efg|dedB cBAG|(3BdB dB cd (3efg|dcBA G2 DG|
(3BdB dB cd (3efg|dedB cBAG|(3Bcd ef gedc|BcAF GFED||

